Icons/Line/si_Equalizer.svg

<svg xmlns="http://www.w3.org/2000/svg" width="24" height="24" fill="none"><path stroke="#000" stroke-linecap="round" stroke-linejoin="round" stroke-miterlimit="10" stroke-width="1.5" d="M2 12h4m4 0h4m4 0h4M2 16h4m4 0h4m4 0h4M2 20h4m4 0h4m4 0h4M2 8h4m12 0h4m-4-4h4"/></svg>

<svg width="24" height="24" fill="none" xmlns="http://www.w3.org/2000/svg"><path d="M2 12h4M10 12h4M18 12h4M2 16h4M10 16h4M18 16h4M2 20h4M10 20h4M18 20h4M2 8h4M18 8h4M18 4h4" stroke="#000" stroke-width="1.5" stroke-miterlimit="10" stroke-linecap="round"/></svg>
